X:1
T:Hilton Head, LMD
T:John Roson Sweney, 1899
T:Hilton Head, LMD
T:Public Domain
C:John Roson Sweney, 1899
Z:Public Domain
%%score ( 1 2 ) ( 3 4 )
L:1/8
M:3/4
K:C
V:1 treble 
V:2 treble 
V:3 bass 
V:4 bass 
V:1
 [EG][CE] [DF] | [EG]3 [Ec] [FB][FA] | [EG]3 [EG] [CE][DF] | [EG]3 [FA] [EG][CE] | %4
 [B,D]3 [B,G] [CE][DF] | [EG]3 [Ge] [Gd][Gc] | [FA]3 [Ac] [GB][FA] | G2 c2 [DB]2 | %8
 [Fd]2 [Ec][Ec] [EG][Ec] | [Ec]2 [DB]2 [DB][Ec] | [Fd]3 [FG] [FG][Fd] | [Fd]2 [Ec]2 [Gc][Gd] | %12
 [Ge]3 [Ge] [Ge][Fd] | [Ec]3 [GB] [GB][FA] | [Fd]3 [Fc] [GB][FA] | G2 c2 [DB]2 | [Fd]2 [Ec] |] %17
V:2
 x3 | x6 | x6 | x6 | x6 | x6 | x6 | E4 x2 | x6 | x6 | x6 | x6 | x6 | x6 | x6 | E4 x2 | x3 |] %17
V:3
 [C,C][C,G,] [C,G,] | [C,C]3 [C,G,] [C,A,][C,B,] | [C,C]3 [C,C] [C,G,][C,G,] | %3
 [C,C]3 [C,C] [C,C][E,G,] | G,3 [G,,G,] [C,G,][C,G,] | [C,C]3 [C,C] [D,B,][E,C] | %6
 [E,C]3 [F,C] [F,C][F,C] | C2 G,2 [G,,G,]2 | [G,,G,]2 [C,G,][C,G,] [C,C][C,G,] | G,2 G,2 G,[G,C] | %10
 [G,B,]3 [G,B,] [G,B,]G, | [C,G,]2 [C,G,]2 [E,C][G,B,] | C3 [C,C] [C,C][C,G,] | %13
 [C,G,]3 [E,C] [F,C][F,C] | [F,A,]3 [F,A,] [F,B,][F,C] | C2 G,2 [G,,G,]2 | [G,,G,]2 [C,G,] |] %17
V:4
 x3 | x6 | x6 | x6 | G,3 x3 | x6 | x6 | G,4 x2 | x6 | G,2 G,2 G, x | x5 G, | x6 | C3 x3 | x6 | x6 | %15
 G,4 x2 | x3 |] %17

